X:1
T:Title
%%score ( 1 2 3 ) ( 4 5 6 )
L:1/8
Q:1/4=120
M:none
K:F
V:1 treble nm="Voice"
V:2 treble 
V:3 treble 
V:4 bass nm="Voice"
V:5 bass 
V:6 bass 
V:1
!mp! DCA, DCA, | C3 x3 | F2 C3 | _D3 DCB, | z2 DC B, DC!ped!B, | [C-^A]3 [CA]2 x | %6
 !fermata![CB]3!p! D3/2[DF][EG] | [FA]3 [^CA]3 x4 [Dd]3 [Dd][_E=c][EA] |!ped! [DB]3 (A2 G) | %9
!ped! [DF]3 [DF][DG][D^G] | [CA]3 F[E=G]F | [E-G]3 [EG]2 [A,CF] x | [A,CF]3 |] %13
V:2
 DCA, DCA, | C2 C2 x2 | F2 C2 x | _D3 DCB, | x2 DC B, (DC)B, | x6 | x13/2 | x16 | x3 ^C3 | x6 | %10
 x3 AEF | x7 | x3 |] %13
V:3
 x6 | x2 C3 x | x5 | x6 | x8 | x6 | x13/2 | x16 | x6 | x6 | x6 | x7 | x3 |] %13
V:4
 D,C,A,, D,C,A,, | C,3 C,3 | F,3 x2 | _D,3 x3 | x2 _D,C, B,, (D,C,)B,, | (([F,A,]3 [^F,^D]3)) | %6
 .E3 x7/2 | [F,A,]3 [E,G,]3 [E,G,]4 !arpeggio![D,F,]2 [D,F,][F,A,][F,C] x | [G,B,]3 (A,2 A,,) | %9
 [B,,B,]3 [=B,,_A,][B,,G,][B,,F,] | [C,F,]3 [C,C][^C,_B,][D,=A,] | [=C,B,]3- [C,B,]2 [F,,F,]2 | %12
 [F,,F,]2 x |] %13
V:5
 D,C,A,, D,C,A,, | C,3 C,3 | F,2 C,3 | _D,2 D,C, B,, x | x2 _D,C, B,, (D,C,)B,, | x6 | %6
 G, !fermata!C,2 [C,E,][D,F,][E,G,] x/ | x16 | x3 A,3 | x6 | x6 | x7 | x3 |] %13
V:6
 x6 | x6 | x2 C,3 | x2 _D,C, B,, x | x8 | x6 | x13/2 | x16 | x6 | x6 | x6 | x7 | x3 |] %13

